X:634
T: "Das Grindelfest"
N: Z1315
O: Europa, Mitteleuropa, Deutschland, Wetterau
R: Zech -, Schalks - Lied
M: 2/4
L: 1/16
K: Bb
F2 | F2B2B2B2 | A3GF2
F2 | B2B2c2c2 | d4z2
F2 | F2B2B2B2 | A3GF2
F2 | B2B2c2c2 | d6
d2 | d3dd2d2 | d4f4 |
c3cc2c2 | c4f3
e | d2d2c2c2 | B4z2
d2 | d2d2d2d2 | d4f4 |
c3cc2c2 | c4f3
e | d2d2c2c2 | B4z2

@@@ Tune index: 10392
